X: 4566
T:NEFFA By-Pass
M:C
L:1/8
Q:1/4=120
C:Larry Warren
R:reel
H:This tune popped into my head right after learning, from Peter
H:Yarensky's Seacoast Country Dance Newsletter, that Bob McQuillen had
H:open heart surgery and missed the New England Folk festival.
Z:5/7/98
Z:posted by Larry Warren 11/98
K:D
dB|ABAF DFAd|fefg fed2|ABAF DFAF|BAGF EFE2|
ABAF DFAd|fefg fed2|fefg fedB|ABAF D2
:||:de|fefg fed2|gfga gfe2|fefg fed2|gfed efe2|fefg fed2
|gfga gfe2|fefg fedB|ABAF D2:|
